X: 18456
T: Hurry The Jug
R: jig
M: 6/8
K: Edorian
|:D|EFE G2 A|BGE FEF|DED F2 G|AdB AFD|
~E3 ~G2 A|BGE FGA|BdB AdF|EGF E2:|
|:A|AFA d2 d|cec d2 A|AFA d2 A|BAG FED|
E2 e e2 f|g2 e f2 d|B2 e e2 f|gfe fdB|
AF/G/A d2 d|c/d/ec d2 A|AFA d2 A|BAG FED|
EFE G2 A|BGE FGA|B/c/dB AdF|EGF E2:|

